X:2
T:Body & Soul
C:John Green
L:1/4
M:C
I:linebreak $
K:Db
"Ebm" z/ E/F/E/"EbmM" F E |"Ebm" B2"D7" B2 |"Db" z/ A/B/A/"Ebm" B A |"Fm" e d"Eo" c B |$
"Ebm" z d"Ebm/Db" (3B G B, |"Cø" F2"B7" E2 |"Bbm" (3D E F"Ebm" (3A B"D7" =E ||1
"Db" D2"Do" z2 :|2$"Db6" D2"Em" z"A7" z ||[K:D]"D6" z/ D/E/F/"Em" A/ A A/ |
"Bm" d/ d F/"Gm" A/ A G/ |"F#m" F"Bm" F/D/"Em" E"Eo" C |$"F#m" A"F7" z"Em" z"Eb7" z ||
[K:C]"Dm" z/ D/E/F/"G7" A/ A G/ |"C" e/ e B/"Ebo" d/ d A/ |"Dm" c/ c A/"C#7" B/ B G/ |$
"C7" E"B7" _E"Bb7" D/"_D.C. al 3rd end." _B3/2 ||3[K:Db]"Db6" D4 |]

